public/feature3.svg

<svg width="69" height="61" viewBox="0 0 69 61" fill="none" xmlns="http://www.w3.org/2000/svg">
<g clip-path="url(#clip0_191_47)">
<path d="M11.1568 27.6573C15.4804 27.6573 18.9854 24.1523 18.9854 19.8286C18.9854 15.505 15.4804 12 11.1568 12C6.83313 12 3.32812 15.505 3.32812 19.8286C3.32812 24.1523 6.83313 27.6573 11.1568 27.6573Z" fill="#6F99A3"/>
<path d="M43.343 51C52.2851 51 59.5342 43.7509 59.5342 34.8089C59.5342 25.8667 52.2851 18.6177 43.343 18.6177C34.4009 18.6177 27.1519 25.8667 27.1519 34.8089C27.1519 43.7509 34.4009 51 43.343 51Z" fill="#44C4E8"/>
</g>
<path d="M20.5 42C16.75 42 13.5625 40.6875 10.9375 38.0625C8.3125 35.4375 7 32.25 7 28.5C7 24.75 8.3125 21.5625 10.9375 18.9375C13.5625 16.3125 16.75 15 20.5 15H43C46.75 15 49.9375 16.3125 52.5625 18.9375C55.1875 21.5625 56.5 24.75 56.5 28.5C56.5 32.25 55.1875 35.4375 52.5625 38.0625C49.9375 40.6875 46.75 42 43 42H20.5ZM20.5 37.5H43C45.475 37.5 47.5938 36.6187 49.3563 34.8562C51.1188 33.0938 52 30.975 52 28.5C52 26.025 51.1188 23.9063 49.3563 22.1438C47.5938 20.3813 45.475 19.5 43 19.5H20.5C18.025 19.5 15.9063 20.3813 14.1438 22.1438C12.3813 23.9063 11.5 26.025 11.5 28.5C11.5 30.975 12.3813 33.0938 14.1438 34.8562C15.9063 36.6187 18.025 37.5 20.5 37.5ZM43 35.25C44.875 35.25 46.4688 34.5938 47.7812 33.2812C49.0938 31.9688 49.75 30.375 49.75 28.5C49.75 26.625 49.0938 25.0312 47.7812 23.7188C46.4688 22.4062 44.875 21.75 43 21.75C41.125 21.75 39.5312 22.4062 38.2188 23.7188C36.9062 25.0312 36.25 26.625 36.25 28.5C36.25 30.375 36.9062 31.9688 38.2188 33.2812C39.5312 34.5938 41.125 35.25 43 35.25Z" fill="black"/>
<defs>
<clipPath id="clip0_191_47">
<rect width="62" height="45" fill="white" transform="translate(3.32812 12)"/>
</clipPath>
</defs>
</svg>

<svg xmlns="http://www.w3.org/2000/svg" width="69" height="61" fill="none"><g clip-path="url(#a)"><path fill="#6F99A3" d="M11.157 27.657a7.829 7.829 0 1 0 0-15.657 7.829 7.829 0 0 0 0 15.657Z"/><path fill="#44C4E8" d="M43.343 51c8.942 0 16.191-7.25 16.191-16.191 0-8.942-7.249-16.191-16.191-16.191s-16.191 7.249-16.191 16.19C27.152 43.752 34.4 51 43.343 51Z"/></g><path fill="#000" d="M20.5 42c-3.75 0-6.938-1.313-9.563-3.938C8.313 35.438 7 32.25 7 28.5c0-3.75 1.313-6.938 3.938-9.563C13.562 16.313 16.75 15 20.5 15H43c3.75 0 6.938 1.313 9.563 3.938C55.187 21.563 56.5 24.75 56.5 28.5c0 3.75-1.313 6.938-3.938 9.563C49.938 40.687 46.75 42 43 42H20.5Zm0-4.5H43c2.475 0 4.594-.881 6.356-2.644C51.12 33.094 52 30.975 52 28.5s-.881-4.594-2.644-6.356C47.594 20.38 45.475 19.5 43 19.5H20.5c-2.475 0-4.594.881-6.356 2.644C12.38 23.906 11.5 26.025 11.5 28.5s.881 4.594 2.644 6.356C15.906 36.62 18.025 37.5 20.5 37.5ZM43 35.25c1.875 0 3.469-.656 4.781-1.969 1.313-1.312 1.969-2.906 1.969-4.781 0-1.875-.656-3.469-1.969-4.781C46.47 22.406 44.875 21.75 43 21.75c-1.875 0-3.469.656-4.781 1.969-1.313 1.312-1.969 2.906-1.969 4.781 0 1.875.656 3.469 1.969 4.781C39.53 34.594 41.125 35.25 43 35.25Z"/><defs><clipPath id="a"><path fill="#fff" d="M3.328 12h62v45h-62z"/></clipPath></defs></svg>
